X:250
T:Piper's Wedding  (reel), The 
T:Galway Rambler
B:CRE2.177 (Bainis an PhÃÂÃÂÃÂÃÂ­obaire)
F:file ID: cre.2/250pipers_w
R:reel
M:C
Q:180
K:G
G2dG eGdG|G2dB AGED|G2dG eGd2|gedB AGED|
G2dG G2dG|G2dB AGED|G2 (3Bcd egd2|gedB AGed||
g2gb a2ab|gabg aged|g3a b2ab|gedB AGed|
g2gb a2ab|ga (3bag a2ga|bg~g2 age2|gedB AGED||

%%%

